icon-svg/skysports-premierleague.svg

<svg xmlns="http://www.w3.org/2000/svg" viewBox="0 0 24 24"><path fill="#44739e" d="M12.877 14.179a.57.57 0 0 0-.51-.336.61.61 0 0 0-.61.6v.011a.593.593 0 0 0 .591.594h.043a.7.7 0 0 0 .472-.216l-.182-.19a.4.4 0 0 1-.316.138.275.275 0 0 1-.289-.24h.845a.7.7 0 0 0-.044-.361m-.8.151a.28.28 0 0 1 .277-.221.284.284 0 0 1 .276.221Zm1.894.547.035.141h.276v-1.147H14l-.031.147a.4.4 0 0 0-.341-.162.58.58 0 0 0-.379.14.6.6 0 0 0-.2.433.63.63 0 0 0 .135.4.55.55 0 0 0 .4.216.45.45 0 0 0 .387-.168m-.6-.43a.3.3 0 0 1 .294-.3h.006a.308.308 0 0 1 .011.614.33.33 0 0 1-.215-.072.3.3 0 0 1-.092-.242Zm-2.763-1.13v1.702l1.077-.001v-.314h-.731v-1.387Zm-.808.836a.3.3 0 0 1 .1.023v-.294a.307.307 0 0 0-.381.174l-.036-.174h-.265v1.14h.3v-.607a.274.274 0 0 1 .282-.262m12.114 1.846a.2.2 0 0 1-.2.2H2.285a.2.2 0 0 1-.2-.2v-3.531a.28.28 0 0 1-.085-.2v3.731a.285.285 0 0 0 .285.286h19.43a.285.285 0 0 0 .285-.286v-3.735a.28.28 0 0 1-.086.2Zm-6.79-6.865h-.058a.69.69 0 0 0-.688.691v.055a.691.691 0 1 0 1.376 0 .693.693 0 0 0-.63-.746m4.135 3.841a1.56 1.56 0 0 1 1.2-.148 1.2 1.2 0 0 1 .1-.4 1.3 1.3 0 0 0-.228.234l-.024-.364-.307.338-.21-.342-.129.383-.376-.266.063.37a1.2 1.2 0 0 0-.278-.184 1.3 1.3 0 0 1 .189.379m-6.533-3.837h-.057a.72.72 0 0 0-.633.383v.729a.71.71 0 0 0 .633.382.69.69 0 0 0 .691-.694v-.054a.69.69 0 0 0-.634-.746M2.322 13.281v1.741h.329v-.572h.14c.461 0 .707-.2.707-.6a.56.56 0 0 0-.217-.447.77.77 0 0 0-.515-.123Zm.834.58c0 .209-.155.279-.339.278h-.166v-.54h.2c.228.012.302.134.305.262M14.9 15.283a.54.54 0 0 1-.271-.149l-.176.247a.84.84 0 0 0 .527.207.6.6 0 0 0 .659-.535.6.6 0 0 0 0-.124v-1.058h-.282l-.031.148a.4.4 0 0 0-.341-.163.58.58 0 0 0-.385.143.6.6 0 0 0-.2.434.62.62 0 0 0 .136.4.57.57 0 0 0 .593.2.4.4 0 0 0 .181-.113c.049.316-.192.4-.41.363m.146-.528a.33.33 0 0 1-.213-.071.313.313 0 0 1 .194-.542h.006a.308.308 0 0 1 .013.613m.737-.881v.638a.52.52 0 0 0 .155.386.55.55 0 0 0 .385.15.57.57 0 0 0 .419-.135.5.5 0 0 0 .166-.375v-.664h-.317v.56a.33.33 0 0 1-.087.263.25.25 0 0 1-.18.055.23.23 0 0 1-.174-.091.4.4 0 0 1-.043-.235v-.552Zm2.361.305a.56.56 0 0 0-.51-.336.607.607 0 0 0-.609.605v.01a.593.593 0 0 0 .59.594h.044a.7.7 0 0 0 .472-.216l-.182-.19a.4.4 0 0 1-.316.138.274.274 0 0 1-.289-.24h.845a.7.7 0 0 0-.045-.365m-.8.151a.28.28 0 0 1 .277-.221.284.284 0 0 1 .277.221Zm-9.877-.448h.315v1.14h-.315ZM7 15.022h.3v-.718a.41.41 0 0 0-.363-.454H6.91a.38.38 0 0 0-.357.185.38.38 0 0 0-.334-.185.32.32 0 0 0-.286.175l-.033-.146h-.273v1.143h.307v-.708a.184.184 0 0 1 .185-.172.186.186 0 0 1 .194.157v.723h.3v-.669a.207.207 0 0 1 .192-.213.2.2 0 0 1 .2.2v.678Zm11.777-.591a1.54 1.54 0 0 0 .091.959 2.1 2.1 0 0 0 .439-.5 1.6 1.6 0 0 1 0 .859 1.12 1.12 0 0 0 1.194-.107c.013.057.022.083.049.206a1.23 1.23 0 0 0 .555-.911l.125.138A1.51 1.51 0 0 0 21 13.66l-.013.1c-.035-.044-.091-.1-.118-.13a.01.01 0 0 0-.006-.011c.014-.01.041-.022.047-.041a.2.2 0 0 0-.055-.1.12.12 0 0 0-.1.07.34.34 0 0 0-.139-.088.7.7 0 0 1 .1.148 2 2 0 0 1 .216.19l-.013.013a.46.46 0 0 0-.389 0 2 2 0 0 0-.2-.216.125.125 0 0 1 .045-.159.22.22 0 0 0-.142.07.7.7 0 0 0-.233-.116.5.5 0 0 0-.234.122.43.43 0 0 0 .2.076c.09.007.17-.014.228.023a1.1 1.1 0 0 1 .226.239 1.3 1.3 0 0 0-.486-.042.3.3 0 0 1-.287-.267l-.13-.021a.47.47 0 0 1 .235-.169l-.072-.06a.87.87 0 0 1 .475-.193 1.7 1.7 0 0 1 .308.19.35.35 0 0 0 .043-.156 1.5 1.5 0 0 1 .421.3.8.8 0 0 1-.1-.3 1 1 0 0 0-.451-.224.4.4 0 0 1 .039.169 1 1 0 0 0-.225-.2 1.5 1.5 0 0 0-.846.158.26.26 0 0 1 .209.178c-.288-.2-.453.089-.286.377a.33.33 0 0 1-.133-.43 1.6 1.6 0 0 0-.468.566l.164.023a1.55 1.55 0 0 0-.318.768Zm2.052-.4a.6.6 0 0 0 .144-.107.56.56 0 0 1 .008.518.6.6 0 0 0-.155-.206Zm0 .4a.32.32 0 0 1 .083.17.46.46 0 0 1-.2.318 1 1 0 0 0-.02-.23.5.5 0 0 1-.243.128 1 1 0 0 0-.1-.2.8.8 0 0 0 .338-.187Zm-.3-.513a.6.6 0 0 0 .191.107v.21a.87.87 0 0 1-.455.237c-.056-.106-.109-.224-.173-.325a1.2 1.2 0 0 1 .435-.229ZM5.828 10.999a.9.9 0 0 0 .343-.065l-.719-1.081.509-.539.839 1.308-.51 1.069a.7.7 0 0 0 .285.061.41.41 0 0 0 .437-.282l1.199-2.671a.7.7 0 0 0-.249-.059.48.48 0 0 0-.494.344l-.389.915-.763-1.237a1 1 0 0 0-.258-.036.7.7 0 0 0-.576.273l-.742.809.6.938a.53.53 0 0 0 .488.253m1.941 2.391a.2.2 0 0 0-.139-.058.2.2 0 0 0-.2.2.195.195 0 0 0 .2.2.2.2 0 0 0 .139-.057.2.2 0 0 0 .058-.14.2.2 0 0 0-.058-.145m.141 1.06v.015a.593.593 0 0 0 .592.592h.042a.7.7 0 0 0 .472-.216l-.183-.19a.4.4 0 0 1-.315.138.275.275 0 0 1-.29-.24h.846a.7.7 0 0 0-.045-.364.56.56 0 0 0-.51-.334.6.6 0 0 0-.609.599m.6-.336a.28.28 0 0 1 .276.223h-.558a.28.28 0 0 1 .277-.223Zm13.201-6.399H9.141a.286.286 0 0 0-.286.284v3.713a.286.286 0 0 0 .284.287h12.576a.287.287 0 0 0 .285-.286V7.999a.29.29 0 0 0-.289-.284m-11.26 3.214a2.5 2.5 0 0 1-.786-.136c-.025-.175.029-.268.132-.268a4 4 0 0 0 .662.1c.346 0 .475-.122.475-.281 0-.114-.05-.216-.361-.3l-.358-.1c-.4-.1-.551-.3-.551-.547 0-.3.24-.57.783-.57a2.3 2.3 0 0 1 .732.125c.033.17-.021.263-.125.263a4 4 0 0 0-.6-.088c-.322 0-.44.109-.44.252 0 .1.047.193.333.276l.365.1c.407.114.572.3.572.571 0 .321-.243.603-.833.603m3.259-1.1v.05a.98.98 0 0 1-.91 1.05h-.059a.86.86 0 0 1-.7-.346v.849c0 .078-.046.132-.182.132a.7.7 0 0 1-.164-.018V8.871a1 1 0 0 1 .164-.018c.136 0 .182.05.182.133v.192a.85.85 0 0 1 .7-.346.984.984 0 0 1 .973.994Zm2.4.049a1.02 1.02 0 0 1-.988 1.05h-.053a1.05 1.05 0 1 1 1.041-1.059Zm1.465-.692a.72.72 0 0 0-.685.45v1.139c0 .085-.046.13-.186.13a.6.6 0 0 1-.161-.018V8.871a1 1 0 0 1 .161-.018c.139 0 .186.05.186.133v.281a.855.855 0 0 1 .871-.4 1 1 0 0 1 .018.156c-.004.137-.062.166-.208.166Zm1.125 1.745a.583.583 0 0 1-.638-.523.5.5 0 0 1 0-.105V8.566c0-.09.05-.147.186-.147a1 1 0 0 1 .161.022v.438h.791a1 1 0 0 1 .015.14c0 .121-.05.163-.125.163h-.671v1.1c0 .236.111.349.332.349a2.4 2.4 0 0 0 .411-.089c.1 0 .148.084.126.253a1.34 1.34 0 0 1-.588.136m1.644 0h-.005a2.4 2.4 0 0 1-.785-.138c-.025-.174.028-.266.132-.266a4 4 0 0 0 .66.1c.346 0 .475-.121.475-.282 0-.114-.05-.214-.361-.3l-.357-.1c-.4-.1-.55-.3-.55-.547 0-.3.239-.571.782-.571a2.3 2.3 0 0 1 .731.125c.033.172-.021.265-.125.265a4 4 0 0 0-.6-.09c-.321 0-.439.111-.439.254 0 .1.047.193.333.274l.364.1c.406.113.571.3.571.571.006.321-.237.603-.826.603Zm-15.633-.25v-2.7a.7.7 0 0 0-.145-.014c-.388 0-.456.206-.456.4v2.614a1 1 0 0 0 .138.01c.386 0 .463-.114.463-.31m-.836 3.201h-.263v1.14h.3v-.607a.275.275 0 0 1 .29-.26.3.3 0 0 1 .09.021v-.294a.31.31 0 0 0-.382.174Zm-1.283-3.831.465.089c.17.033.257.072.257.164 0 .07-.066.145-.284.145-.2 0-.465-.031-.635-.031s-.337.073-.337.394a1 1 0 0 0 .015.129 6 6 0 0 0 1.111.034c.489-.054.73-.32.73-.689 0-.316-.2-.576-.652-.659l-.443-.082c-.142-.025-.231-.057-.231-.138s.094-.138.32-.138.417.022.542.022c.163 0 .333-.068.333-.389a.6.6 0 0 0-.013-.124 5 5 0 0 0-1.047-.034c-.479.055-.723.341-.723.684a.656.656 0 0 0 .592.623m2.852 4.133a.56.56 0 0 0-.51-.334.6.6 0 0 0-.609.6v.015a.59.59 0 0 0 .589.592h.045a.7.7 0 0 0 .472-.216l-.183-.19a.4.4 0 0 1-.315.138.275.275 0 0 1-.29-.24h.846a.7.7 0 0 0-.045-.365m-.8.153a.28.28 0 0 1 .277-.223.284.284 0 0 1 .276.223Z"/></svg>

<?xml version="1.0" encoding="UTF-8"?>
<svg width="24px" fill="#44739e" height="24px" viewBox="0 0 24 24" version="1.1" xmlns="http://www.w3.org/2000/svg" xmlns:xlink="http://www.w3.org/1999/xlink">
            <path d="m 12.877,14.18 a 0.567,0.567 0 0 0 -0.51,-0.336 0.608,0.608 0 0 0 -0.61,0.6 v 0.011 a 0.593,0.593 0 0 0 0.591,0.594 h 0.043 a 0.705,0.705 0 0 0 0.472,-0.216 l -0.182,-0.19 a 0.4,0.4 0 0 1 -0.316,0.138 0.275,0.275 0 0 1 -0.289,-0.24 h 0.845 A 0.716,0.716 0 0 0 12.877,14.18 Z m -0.8,0.151 a 0.279,0.279 0 0 1 0.277,-0.221 0.284,0.284 0 0 1 0.276,0.221 z m 1.894,0.547 0.035,0.141 h 0.276 V 13.872 H 14 l -0.031,0.147 a 0.4,0.4 0 0 0 -0.341,-0.162 0.58,0.58 0 0 0 -0.379,0.14 0.6,0.6 0 0 0 -0.2,0.433 0.625,0.625 0 0 0 0.135,0.4 0.552,0.552 0 0 0 0.4,0.216 0.452,0.452 0 0 0 0.387,-0.168 z m -0.6,-0.43 v 0 a 0.3,0.3 0 0 1 0.294,-0.3 h 0.006 a 0.308,0.308 0 0 1 0.011,0.614 0.329,0.329 0 0 1 -0.215,-0.072 0.3,0.3 0 0 1 -0.092,-0.242 z m -2.763,-1.13 v 1.702 l 1.077,-10e-4 V 14.705 H 10.954 V 13.318 Z M 9.8,14.154 a 0.265,0.265 0 0 1 0.1,0.023 V 13.883 A 0.307,0.307 0 0 0 9.519,14.057 L 9.483,13.883 H 9.218 v 1.14 h 0.3 V 14.416 A 0.274,0.274 0 0 1 9.8,14.154 Z M 21.914,16 a 0.2,0.2 0 0 1 -0.2,0.2 H 2.285 A 0.2,0.2 0 0 1 2.085,16 V 12.469 A 0.281,0.281 0 0 1 2,12.269 V 16 a 0.285,0.285 0 0 0 0.285,0.286 h 19.43 A 0.285,0.285 0 0 0 22,16 v -3.735 a 0.282,0.282 0 0 1 -0.086,0.2 z m -6.79,-6.865 h -0.058 a 0.689,0.689 0 0 0 -0.688,0.691 v 0 a 0.5,0.5 0 0 0 0,0.055 0.691,0.691 0 1 0 1.376,0 0.693,0.693 0 0 0 -0.63,-0.746 z m 4.135,3.841 a 1.563,1.563 0 0 1 1.2,-0.148 1.207,1.207 0 0 1 0.1,-0.4 1.263,1.263 0 0 0 -0.228,0.234 L 20.307,12.298 20,12.636 l -0.21,-0.342 -0.129,0.383 -0.376,-0.266 0.063,0.37 a 1.2,1.2 0 0 0 -0.278,-0.184 1.258,1.258 0 0 1 0.189,0.379 z M 12.726,9.139 h -0.057 a 0.722,0.722 0 0 0 -0.633,0.383 v 0.729 a 0.712,0.712 0 0 0 0.633,0.382 0.692,0.692 0 0 0 0.691,-0.694 V 9.885 A 0.692,0.692 0 0 0 12.726,9.139 Z M 2.322,13.282 v 1.741 h 0.329 v -0.572 h 0.14 c 0.461,0 0.707,-0.2 0.707,-0.6 A 0.557,0.557 0 0 0 3.281,13.404 0.774,0.774 0 0 0 2.766,13.281 Z m 0.834,0.58 c 0,0.209 -0.155,0.279 -0.339,0.278 H 2.651 V 13.6 h 0.2 c 0.228,0.012 0.302,0.134 0.305,0.262 z M 14.9,15.284 a 0.539,0.539 0 0 1 -0.271,-0.149 l -0.176,0.247 a 0.84,0.84 0 0 0 0.527,0.207 0.6,0.6 0 0 0 0.659,-0.535 0.642,0.642 0 0 0 0,-0.124 V 13.872 H 15.357 L 15.326,14.02 A 0.4,0.4 0 0 0 14.985,13.857 0.579,0.579 0 0 0 14.6,14 a 0.609,0.609 0 0 0 -0.2,0.434 0.621,0.621 0 0 0 0.136,0.4 0.573,0.573 0 0 0 0.593,0.2 0.4,0.4 0 0 0 0.181,-0.113 c 0.049,0.316 -0.192,0.4 -0.41,0.363 z m 0.146,-0.528 a 0.328,0.328 0 0 1 -0.213,-0.071 0.313,0.313 0 0 1 0.194,-0.542 h 0.006 a 0.308,0.308 0 0 1 0.013,0.613 z m 0.737,-0.881 v 0.638 a 0.522,0.522 0 0 0 0.155,0.386 0.55,0.55 0 0 0 0.385,0.15 0.571,0.571 0 0 0 0.419,-0.135 0.513,0.513 0 0 0 0.166,-0.375 v -0.664 h -0.317 v 0.56 a 0.331,0.331 0 0 1 -0.087,0.263 0.246,0.246 0 0 1 -0.18,0.055 0.23,0.23 0 0 1 -0.174,-0.091 0.383,0.383 0 0 1 -0.043,-0.235 v -0.552 z m 2.361,0.305 a 0.562,0.562 0 0 0 -0.51,-0.336 0.607,0.607 0 0 0 -0.609,0.605 v 0.01 a 0.593,0.593 0 0 0 0.59,0.594 h 0.044 a 0.71,0.71 0 0 0 0.472,-0.216 l -0.182,-0.19 a 0.4,0.4 0 0 1 -0.316,0.138 0.274,0.274 0 0 1 -0.289,-0.24 h 0.845 A 0.706,0.706 0 0 0 18.144,14.18 Z m -0.8,0.151 a 0.279,0.279 0 0 1 0.277,-0.221 0.284,0.284 0 0 1 0.277,0.221 z M 7.467,13.883 h 0.315 v 1.14 H 7.467 Z M 7,15.023 H 7.3 V 14.305 A 0.411,0.411 0 0 0 6.937,13.851 H 6.91 A 0.384,0.384 0 0 0 6.553,14.036 0.375,0.375 0 0 0 6.219,13.851 0.319,0.319 0 0 0 5.933,14.026 L 5.9,13.88 H 5.627 v 1.143 H 5.934 V 14.315 A 0.184,0.184 0 0 1 6.119,14.143 0.186,0.186 0 0 1 6.313,14.3 v 0.723 h 0.3 v -0.669 a 0.207,0.207 0 0 1 0.192,-0.213 0.2,0.2 0 0 1 0.2,0.2 v 0.678 z m 11.777,-0.591 a 1.541,1.541 0 0 0 0.091,0.959 2.075,2.075 0 0 0 0.439,-0.5 1.606,1.606 0 0 1 0,0.859 1.118,1.118 0 0 0 1.194,-0.107 c 0.013,0.057 0.022,0.083 0.049,0.206 a 1.227,1.227 0 0 0 0.555,-0.911 l 0.125,0.138 A 1.514,1.514 0 0 0 21,13.661 l -0.013,0.1 c -0.035,-0.044 -0.091,-0.1 -0.118,-0.13 A 0.013,0.013 0 0 0 20.863,13.62 c 0.014,-0.01 0.041,-0.022 0.047,-0.041 a 0.192,0.192 0 0 0 -0.055,-0.1 0.12,0.12 0 0 0 -0.1,0.07 0.344,0.344 0 0 0 -0.139,-0.088 0.7,0.7 0 0 1 0.1,0.148 2.053,2.053 0 0 1 0.216,0.19 l -0.013,0.013 a 0.457,0.457 0 0 0 -0.389,0 2.158,2.158 0 0 0 -0.2,-0.216 0.125,0.125 0 0 1 0.045,-0.159 0.222,0.222 0 0 0 -0.142,0.07 0.659,0.659 0 0 0 -0.233,-0.116 0.485,0.485 0 0 0 -0.234,0.122 0.43,0.43 0 0 0 0.2,0.076 c 0.09,0.007 0.17,-0.014 0.228,0.023 a 1.139,1.139 0 0 1 0.226,0.239 1.248,1.248 0 0 0 -0.486,-0.042 0.3,0.3 0 0 1 -0.287,-0.267 l -0.13,-0.021 a 0.469,0.469 0 0 1 0.235,-0.169 l -0.072,-0.06 a 0.868,0.868 0 0 1 0.475,-0.193 1.679,1.679 0 0 1 0.308,0.19 0.35,0.35 0 0 0 0.043,-0.156 1.529,1.529 0 0 1 0.421,0.3 0.843,0.843 0 0 1 -0.1,-0.3 1.011,1.011 0 0 0 -0.451,-0.224 0.41,0.41 0 0 1 0.039,0.169 0.933,0.933 0 0 0 -0.225,-0.2 1.5,1.5 0 0 0 -0.846,0.158 0.256,0.256 0 0 1 0.209,0.178 c -0.288,-0.2 -0.453,0.089 -0.286,0.377 a 0.328,0.328 0 0 1 -0.133,-0.43 1.624,1.624 0 0 0 -0.468,0.566 l 0.164,0.023 a 1.548,1.548 0 0 0 -0.318,0.768 z m 2.052,-0.4 a 0.58,0.58 0 0 0 0.144,-0.107 0.555,0.555 0 0 1 0.008,0.518 0.64,0.64 0 0 0 -0.155,-0.206 z m 0,0.4 a 0.321,0.321 0 0 1 0.083,0.17 0.46,0.46 0 0 1 -0.2,0.318 0.846,0.846 0 0 0 -0.02,-0.23 0.49,0.49 0 0 1 -0.243,0.128 1.047,1.047 0 0 0 -0.1,-0.2 0.806,0.806 0 0 0 0.338,-0.187 z m -0.3,-0.513 v 0 a 0.642,0.642 0 0 0 0.191,0.107 v 0.21 a 0.872,0.872 0 0 1 -0.455,0.237 c -0.056,-0.106 -0.109,-0.224 -0.173,-0.325 a 1.2,1.2 0 0 1 0.435,-0.229 z M 5.828,11 A 0.879,0.879 0 0 0 6.171,10.935 L 5.452,9.854 5.961,9.315 6.8,10.623 6.29,11.692 a 0.719,0.719 0 0 0 0.285,0.061 0.413,0.413 0 0 0 0.437,-0.282 L 8.211,8.8 A 0.668,0.668 0 0 0 7.962,8.741 0.478,0.478 0 0 0 7.468,9.085 L 7.079,10 6.316,8.763 A 1.07,1.07 0 0 0 6.058,8.727 0.7,0.7 0 0 0 5.482,9 L 4.74,9.809 5.34,10.747 A 0.532,0.532 0 0 0 5.828,11 Z m 1.941,2.391 a 0.187,0.187 0 0 0 -0.139,-0.058 0.2,0.2 0 0 0 -0.2,0.2 0.195,0.195 0 0 0 0.2,0.2 0.19,0.19 0 0 0 0.139,-0.057 0.2,0.2 0 0 0 0.058,-0.14 0.19,0.19 0 0 0 -0.058,-0.145 z m 0.141,1.06 v 0.015 a 0.593,0.593 0 0 0 0.592,0.592 H 8.544 A 0.712,0.712 0 0 0 9.016,14.842 L 8.833,14.652 A 0.4,0.4 0 0 1 8.518,14.79 0.275,0.275 0 0 1 8.228,14.55 H 9.074 A 0.718,0.718 0 0 0 9.029,14.186 0.561,0.561 0 0 0 8.519,13.852 0.6,0.6 0 0 0 7.91,14.451 Z m 0.6,-0.336 v 0 a 0.282,0.282 0 0 1 0.276,0.223 H 8.228 A 0.278,0.278 0 0 1 8.505,14.115 Z M 21.711,7.716 H 9.141 A 0.286,0.286 0 0 0 8.855,8 v 3.713 A 0.286,0.286 0 0 0 9.139,12 H 21.715 A 0.287,0.287 0 0 0 22,11.714 V 8 A 0.291,0.291 0 0 0 21.711,7.716 Z M 10.451,10.93 A 2.446,2.446 0 0 1 9.665,10.794 C 9.64,10.619 9.694,10.526 9.797,10.526 a 3.893,3.893 0 0 0 0.662,0.1 c 0.346,0 0.475,-0.122 0.475,-0.281 0,-0.114 -0.05,-0.216 -0.361,-0.3 l -0.358,-0.1 c -0.4,-0.1 -0.551,-0.3 -0.551,-0.547 0,-0.3 0.24,-0.57 0.783,-0.57 a 2.283,2.283 0 0 1 0.732,0.125 c 0.033,0.17 -0.021,0.263 -0.125,0.263 a 3.91,3.91 0 0 0 -0.6,-0.088 c -0.322,0 -0.44,0.109 -0.44,0.252 0,0.1 0.047,0.193 0.333,0.276 l 0.365,0.1 c 0.407,0.114 0.572,0.3 0.572,0.571 0,0.321 -0.243,0.603 -0.833,0.603 z m 3.259,-1.1 c 0,0.013 0,0.032 0,0.05 a 0.982,0.982 0 0 1 -0.91,1.05 h -0.059 a 0.858,0.858 0 0 1 -0.7,-0.346 v 0.849 c 0,0.078 -0.046,0.132 -0.182,0.132 A 0.65,0.65 0 0 1 11.695,11.547 V 8.872 a 0.824,0.824 0 0 1 0.164,-0.018 c 0.136,0 0.182,0.05 0.182,0.133 v 0.192 a 0.85,0.85 0 0 1 0.7,-0.346 0.984,0.984 0 0 1 0.973,0.994 z m 2.4,0.049 a 1.02,1.02 0 0 1 -0.988,1.05 H 15.069 A 1.05,1.05 0 1 1 16.11,9.87 Z m 1.465,-0.692 a 0.723,0.723 0 0 0 -0.685,0.45 v 1.139 c 0,0.085 -0.046,0.13 -0.186,0.13 A 0.585,0.585 0 0 1 16.543,10.888 V 8.872 a 0.968,0.968 0 0 1 0.161,-0.018 c 0.139,0 0.186,0.05 0.186,0.133 v 0.281 a 0.855,0.855 0 0 1 0.871,-0.4 1.021,1.021 0 0 1 0.018,0.156 C 17.775,9.161 17.717,9.19 17.571,9.19 Z m 1.125,1.745 a 0.583,0.583 0 0 1 -0.638,-0.523 0.461,0.461 0 0 1 0,-0.105 V 8.567 c 0,-0.09 0.05,-0.147 0.186,-0.147 a 0.878,0.878 0 0 1 0.161,0.022 V 8.88 H 19.2 a 1.089,1.089 0 0 1 0.015,0.14 c 0,0.121 -0.05,0.163 -0.125,0.163 h -0.671 v 1.1 c 0,0.236 0.111,0.349 0.332,0.349 a 2.409,2.409 0 0 0 0.411,-0.089 c 0.1,0 0.148,0.084 0.126,0.253 A 1.344,1.344 0 0 1 18.7,10.932 Z m 1.644,0 v 0 h -0.005 a 2.415,2.415 0 0 1 -0.785,-0.138 c -0.025,-0.174 0.028,-0.266 0.132,-0.266 a 3.986,3.986 0 0 0 0.66,0.1 c 0.346,0 0.475,-0.121 0.475,-0.282 0,-0.114 -0.05,-0.214 -0.361,-0.3 l -0.357,-0.1 c -0.4,-0.1 -0.55,-0.3 -0.55,-0.547 0,-0.3 0.239,-0.571 0.782,-0.571 a 2.328,2.328 0 0 1 0.731,0.125 c 0.033,0.172 -0.021,0.265 -0.125,0.265 a 3.914,3.914 0 0 0 -0.6,-0.09 c -0.321,0 -0.439,0.111 -0.439,0.254 0,0.1 0.047,0.193 0.333,0.274 l 0.364,0.1 c 0.406,0.113 0.571,0.3 0.571,0.571 0.006,0.321 -0.237,0.603 -0.826,0.603 z M 4.711,10.682 v -2.7 A 0.706,0.706 0 0 0 4.566,7.968 c -0.388,0 -0.456,0.206 -0.456,0.4 v 2.614 a 0.915,0.915 0 0 0 0.138,0.01 c 0.386,0 0.463,-0.114 0.463,-0.31 z M 3.875,13.883 H 3.612 v 1.14 h 0.3 v -0.607 a 0.275,0.275 0 0 1 0.29,-0.26 0.281,0.281 0 0 1 0.09,0.021 V 13.883 A 0.31,0.31 0 0 0 3.91,14.057 Z m -1.283,-3.831 0.465,0.089 c 0.17,0.033 0.257,0.072 0.257,0.164 0,0.07 -0.066,0.145 -0.284,0.145 -0.2,0 -0.465,-0.031 -0.635,-0.031 -0.17,0 -0.337,0.073 -0.337,0.394 a 0.7,0.7 0 0 0 0.015,0.129 6.064,6.064 0 0 0 1.111,0.034 c 0.489,-0.054 0.73,-0.32 0.73,-0.689 0,-0.316 -0.2,-0.576 -0.652,-0.659 L 2.819,9.546 C 2.677,9.521 2.588,9.489 2.588,9.408 c 0,-0.081 0.094,-0.138 0.32,-0.138 0.226,0 0.417,0.022 0.542,0.022 0.163,0 0.333,-0.068 0.333,-0.389 A 0.574,0.574 0 0 0 3.77,8.779 5.092,5.092 0 0 0 2.723,8.745 C 2.244,8.8 2,9.086 2,9.429 a 0.656,0.656 0 0 0 0.592,0.623 z m 2.852,4.133 a 0.561,0.561 0 0 0 -0.51,-0.334 0.6,0.6 0 0 0 -0.609,0.6 v 0.015 a 0.591,0.591 0 0 0 0.589,0.592 H 4.959 A 0.712,0.712 0 0 0 5.431,14.842 L 5.248,14.652 A 0.4,0.4 0 0 1 4.933,14.79 0.275,0.275 0 0 1 4.643,14.55 H 5.489 A 0.718,0.718 0 0 0 5.444,14.185 Z m -0.8,0.153 a 0.278,0.278 0 0 1 0.277,-0.223 0.284,0.284 0 0 1 0.276,0.223 z"/>

</svg>
